Resources/Public/Icons/Extension.svg

<?xml version="1.0" encoding="UTF-8"?>
<svg width="256px" height="256px" viewBox="0 0 256 256" version="1.1" xmlns="http://www.w3.org/2000/svg" xmlns:xlink="http://www.w3.org/1999/xlink">
    <!-- Generator: Sketch 49.3 (51167) - http://www.bohemiancoding.com/sketch -->
    <title>Extension</title>
    <desc>Created with Sketch.</desc>
    <defs></defs>
    <g id="Page-1" stroke="none" stroke-width="1" fill="none" fill-rule="evenodd">
        <g id="Extension">
            <rect id="Rectangle" fill="#EC6801" x="0" y="0" width="256" height="256"></rect>
            <path d="M209.125261,106.936458 C210.415104,105.911198 212.333333,106.870313 212.333333,108.490885 L212.333333,176.125 C212.333333,184.889323 205.222656,192 196.458333,192 L58.875,192 C50.1106771,192 43,184.889323 43,176.125 L43,108.523958 C43,106.870313 44.8851563,105.944271 46.2080729,106.969531 C53.6164062,112.724219 63.4390625,120.033333 97.1734375,144.540365 C104.151823,149.633594 115.925781,160.349219 127.666667,160.283073 C139.473697,160.382292 151.479167,149.435156 158.192969,144.540365 C191.927344,120.033333 201.716928,112.691146 209.125261,106.936458 Z M127.666667,149.666667 C135.339583,149.798958 146.385938,140.009375 151.942187,135.974479 C195.829947,104.12526 199.170312,101.347135 209.290625,93.4096354 C211.208854,91.9213542 212.333333,89.60625 212.333333,87.1588542 L212.333333,80.875 C212.333333,72.1106771 205.222656,65 196.458333,65 L58.875,65 C50.1106771,65 43,72.1106771 43,80.875 L43,87.1588542 C43,89.60625 44.1244792,91.8882812 46.0427083,93.4096354 C56.1630208,101.314062 59.5033854,104.12526 103.391146,135.974479 C108.947396,140.009375 119.99375,149.798958 127.666667,149.666667 Z" id="Shape" fill="#FFFFFF" fill-rule="nonzero"></path>
        </g>
    </g>
</svg>

<svg version="1.1" viewBox="0 0 256 256" xmlns="http://www.w3.org/2000/svg"><title>Extension Icon</title><g fill="none" fill-rule="evenodd"><rect width="256" height="256" fill="#EC6801"/><path d="m209.13 106.94c1.2898-1.0253 3.2081-0.066145 3.2081 1.5544v67.634c0 8.7643-7.1107 15.875-15.875 15.875h-137.58c-8.7643 0-15.875-7.1107-15.875-15.875v-67.601c0-1.6536 1.8852-2.5797 3.2081-1.5544 7.4083 5.7547 17.231 13.064 50.965 37.571 6.9784 5.0932 18.752 15.809 30.493 15.743 11.807 0.099219 23.812-10.848 30.526-15.743 33.734-24.507 43.524-31.849 50.932-37.604zm-81.459 42.73c7.6729 0.13229 18.719-9.6573 24.276-13.692 43.888-31.849 47.228-34.627 57.348-42.565 1.9182-1.4883 3.0427-3.8034 3.0427-6.2508v-6.2839c0-8.7643-7.1107-15.875-15.875-15.875h-137.58c-8.7643 0-15.875 7.1107-15.875 15.875v6.2839c0 2.4474 1.1245 4.7294 3.0427 6.2508 10.12 7.9044 13.461 10.716 57.348 42.565 5.5562 4.0349 16.603 13.824 24.276 13.692z" fill="#fff" fill-rule="nonzero"/></g></svg>
